X:7841
T:Konjakspolkan
T:The cognac polka
C:anon.
O:Sweden
A:\"Oland
N:After Mauritz Johansson, \"Olands Skogsby
R:Polka
Z:Transcribed by Frank Nordberg - http://www.musicaviva.com
F:http://abc.musicaviva.com/tunes/sweden/konjakspolkan.abc
M:2/4
L:1/16
K:F
"F"F4 A3B|"F"cccc c2A2|"C7"BBBB B2G2|"F"AAAA A2F2|
"F"F4 A3B|"F"cccc c2A2|"C7"BBBB GGEE|"F"G2F2 F2z2:|
|:"F"f4 "F7"f3f|"Bb"d2d2 d4|"Bb"BdBd d2c2|"F"A3c A4|
"C7"c4 c2B2|"C7"G3E G4|"C7"efef e2de|"F"f2f2 f2z2:|
W:
W:
W:  From Musica Viva - http://www.musicaviva.com
W:  the Internet center for free sheet music downloads.
